!!!COM: Fanny Hensel
!!!OTL: Komm
**kern	**text	**text	**kern	**text	**text	**kern	**text	**text	**kern	**text	**text
*part4	*part4	*part4	*part3	*part3	*part3	*part2	*part2	*part2	*part1	*part1	*part1
*staff4	*staff4	*staff4	*staff3	*staff3	*staff3	*staff2	*staff2	*staff2	*staff1	*staff1	*staff1
*I"Baß	*	*	*I"Tenor	*	*	*I"Alt	*	*	*I"Sopran	*	*
*clefF4	*	*	*clefGv2	*	*	*clefG2	*	*	*clefG2	*	*
*k[f#c#]	*	*	*k[f#c#]	*	*	*k[f#c#]	*	*	*k[f#c#]	*	*
*D:	*	*	*D:	*	*	*D:	*	*	*D:	*	*
*M6/8	*	*	*M6/8	*	*	*M6/8	*	*	*M6/8	*	*
=	=	=	=	=	=	=	=	=	=	=	=
!	!	!	!	!	!	!	!	!	!LO:TX:a:B:t=Allegretto	!	!
8D	Schnell	Was	8A	Schnell	Was	8f#	Schnell	Was	8a	Schnell	Was
=1	=1	=1	=1	=1	=1	=1	=1	=1	=1	=1	=1
4.D	flie-	fehlt	4.A	flie-	fehlt	8a	flie-	fehlt	8ff#	flie-	fehlt
.	.	.	.	.	.	8g	-hen	noch	8ee	-hen	noch
.	.	.	.	.	.	8f#	die	dem	8dd	die	dem
4D	-hen	noch	4A	-hen	noch	8e	Schat-	gol-	8cc#	Schat-	gol-
.	.	.	.	.	.	8f#	-ten,	-de-	8dd	-ten	-de-
8D	die	dem	8A	die	dem	8g	die	-nen,	8ee	der	-nen
=2	=2	=2	=2	=2	=2	=2	=2	=2	=2	=2	=2
4.D	Schat-	gol-	8d	Schat-	gol-	8f#	Schat-	gol-	[4.a	Nacht,	Raum?
.	.	.	8c#	-ten	-de-	8e	-ten	-de-	.	.	.
.	.	.	8B	der	-nen	8d	der	-nen	.	.	.
4D	-ten,	-de-	(8A	Nacht,	Raum?	(8c#	Nacht,	Raum?	4a]	.	.
.	.	.	8B)	.	.	8e)	.	.	.	.	.
8D	heil	-nen,	8c#	heil	Komm	8g	heil	Komm	8a	heil	Komm
=3	=3	=3	=3	=3	=3	=3	=3	=3	=3	=3	=3
4.D	blü-	gol-	4.d	blü-	Lieb-	8f#	blü-	Lieb-	8ff#	blü-	Lieb-
.	.	.	.	.	.	8g	-hen	-chen,	8ee	-hen	-chen,
.	.	.	.	.	.	8f#	die	er-	8dd	die	er-
4D	-hen	-de-	4A	-hen	-chen,	8e	Mat-	-fü-	8cc#	Mat-	-fül-
.	.	.	.	.	.	8f#	-ten,	-le,	8dd	-ten	-le
8D	die	-nen	8A	die	er-	8g	die	er-	8ee	in	den
!!linebreak:original
=4	=4	=4	=4	=4	=4	=4	=4	=4	=4	=4	=4
4.D	Mat-	Raum?	8d	Mat-	-fül-	8f#	Mat-	-fül-	[4.a	Pracht,	Traum,
.	.	.	8c#	-ten	-le	8e	-ten	-le	.	.	.
.	.	.	8B	in	den	8d	in	den	.	.	.
4D	-ten,	.	(8A	Pracht,	Traum,	(8c#	Pracht,	Traum,	4a]	.	.
.	.	.	8B)	.	.	8e)	.	.	.	.	.
8D	schnell	Komm	8c#	schnell	komm	8g	schnell	komm	8a	schnell	komm
=5	=5	=5	=5	=5	=5	=5	=5	=5	=5	=5	=5
8D	flie-	Lieb-	4.d	flie-	Lieb-	4.f#	flie-	Lieb-	4.a	flie-	Lieb-
8D	-hen	-chen,	.	.	.	.	.	.	.	.	.
8E	die	er-	.	.	.	.	.	.	.	.	.
8F#	Schat-	-fül-	4d	-hen	-chen,	4f#	-hen	-chen,	4dd	-hen	-chen,
8G	-ten	-le	.	.	.	.	.	.	.	.	.
8G#X	der	den	8d	die	er-	8f#	die	er-	8dd	die	er-
=6	=6	=6	=6	=6	=6	=6	=6	=6	=6	=6	=6
(4.A	Nacht,	Traum,	4.d	Schat-	-fül-	(4f#	Schat-	-fül-	(4dd	Schat-	-fül-
.	.	.	.	.	.	8g)	.	.	8ee)	.	.
4AA)	.	.	4A	-ten,	-le,	4e	-ten,	-le,	4cc#	-ten,	-le,
8A	heil	komm	8c#	heil	er-	8g	heil	er-	8a	heil	er-
=7	=7	=7	=7	=7	=7	=7	=7	=7	=7	=7	=7
8A	blü-	Lieb-	4.c#	blü-	-fül-	4.g	blü-	-fül-	4.a	blü-	-fül-
8AA	-hen	-chen,	.	.	.	.	.	.	.	.	.
8BB	die	er-	.	.	.	.	.	.	.	.	.
8C#	Mat-	-fül-	4A	-hen	-le	4g	-hen	-le	4ee	-hen	-le
8D	-ten	-le	.	.	.	.	.	.	.	.	.
8E	in	den	8c#	die	den	8g	die	den	8ee	die	den
!!linebreak:original
=8	=8	=8	=8	=8	=8	=8	=8	=8	=8	=8	=8
(4.F#	Pracht.	Traum.	(4.A#X	Mat-	Traum.	[4.f#	Mat-	Traum.	((4ee	Mat-	Traum.
.	.	.	.	.	.	.	.	.	8ff#)	.	.
4BB)	.	.	4B)	-ten.	.	4f#]	-ten.	.	4dd)	-ten.	.
8E	Hoch	Mein	8d	Hoch	Mein	8g#X	Hoch	Mein	8ff#	Hoch	Mein
=9	=9	=9	=9	=9	=9	=9	=9	=9	=9	=9	=9
4.E	rau-	Lied	8d	rau-	Lied	4.g#X	rau-	Lied	8ff#	rau-	Lied
.	.	.	8c#	-schet	tönt	.	.	.	8ee	-schet	tönt
.	.	.	8B	der	in	.	.	.	8dd	der	in
4E	-schet	tönt	8f#	Wald	won-	4g#	-schet	tönt	8dd	Wald	won-
.	.	.	8e	in	-ni-	.	.	.	8cc#	in	-ni-
8E	der	in	8d	dem	-gem	8g#	der	in	8b#X	dem	-gem
=10	=10	=10	=10	=10	=10	=10	=10	=10	=10	=10	=10
4.E	Wald,	won-	4.d	Gan-	Rau-	(4.g#X	Wald,	won-	4.b#X	Gan-	Rau-
4E	.	-ni-	4c#	-ze,	-schen	4a)	.	-ni-	4cc#	-ze,	-schen
8E	der	-gem,	8c#	hoch	mein	8gn	der	-gem,	8ee	hoch	mein
=11	=11	=11	=11	=11	=11	=11	=11	=11	=11	=11	=11
4.E	Wald	won-	8c#	rau-	Lied	4.gn	Wald	won-	8ee	rau-	Lied
.	.	.	8B	-schet	tönt	.	.	.	8dd	-schet	tönt
.	.	.	8A#X	der	in	.	.	.	8cc#	der	in
4E	in	-ni-	8e	Wald	won-	4g	in	-ni-	8cc#	Wald	won-
.	.	.	8d	in	-ni-	.	.	.	8b	in	-ni-
8E	dem	-gem	8c#	dem	-gem	8g	dem	-gem	8a#X	dem	-gem
!!pagebreak:original
=12	=12	=12	=12	=12	=12	=12	=12	=12	=12	=12	=12
4.D	Glan-	Rau-	4.c#	Glan-	Rau-	4.g	Glan-	Rau-	4.a#X	Glan-	Rau-
4D	-ze,	-schen,	4e	-ze,	-schen,	4f#	-ze,	-schen,	4b	-ze,	-schen,
8C#	still	o	8G#X	still	o	8e#X	still	o	8cc#	still	o
=13	=13	=13	=13	=13	=13	=13	=13	=13	=13	=13	=13
8F#	lau-	komm,	4.A	lau-	komm,	4.f#	lau-	komm,	4.cc#	lau-	komm,
8C#	-schet	wie	.	.	.	.	.	.	.	.	.
8F#	ihm	die	.	.	.	.	.	.	.	.	.
8G#X	heim-	Blu-	4B	-schet	wie	4e#X	-schet	wie	4cc#	-schet	wie
8C#	-lich	-me	.	.	.	.	.	.	.	.	.
8G#	die	zu	8B	ihm	die	8e#	ihm	die	8cc#	ihm	die
=14	=14	=14	=14	=14	=14	=14	=14	=14	=14	=14	=14
(8AL	Pflan-	lau-	4.c#	heim-	Blu-	(4f#	heim-	Blu-	(8cc#L	heim-	Blu-
8G#X	.	.	.	.	.	.	.	.	8ff#	.	.
8F#J	.	.	.	.	.	8a)	.	.	8ddJ)	.	.
8E#XL)	.	.	4c#	-lich,	-me	4g#X	-lich,	-me	4cc#	-lich,	-me
8D#X	-ze,	-schen,	.	.	.	.	.	.	.	.	.
8C#J	still	o	8B	ihm	zu	8e#X	ihm	zu	8cc#	ihm	zu
=15	=15	=15	=15	=15	=15	=15	=15	=15	=15	=15	=15
8F#	lau-	komm,	4.A	heim-	lau-	4.f#	heim-	lau-	4.cc#	heim-	lau-
8C#	-schet	wie	.	.	.	.	.	.	.	.	.
8F#	ihm	die	.	.	.	.	.	.	.	.	.
8G#X	heim-	Blu-	4B	-lich	-schen,	4e#X	-lich	-schen,	4cc#	-lich	-schen,
8C#	-lich	-me	.	.	.	.	.	.	.	.	.
8G#	die	zu	8B	die	zu	8e#	die	zu	8cc#	die	zu
!!linebreak:original
=16	=16	=16	=16	=16	=16	=16	=16	=16	=16	=16	=16
(8A	Pflan-	lau-	4.c#	Pflan-	lau-	(4f#	Pflan-	lau-	(8cc#L	Pflan-	lau-
8G#X	.	.	.	.	.	.	.	.	8ff#	.	.
8F#	.	.	.	.	.	8a)	.	.	8ddJ)	.	.
8E#X)	.	.	4c#	-ze.	-schen.	4g#X	-ze.	-schen.	4cc#	-ze.	-schen.
8D#X	-ze.	-schen.	.	.	.	.	.	.	.	.	.
8C#	In	Es	8c#	In	Es	8e#X	In	Es	8b	In	Es
=17	=17	=17	=17	=17	=17	=17	=17	=17	=17	=17	=17
4.F#	glit-	will	4.c#	glit-	will	4.f#	glit-	will	4.a	glit-	will
4F#	-zern-	dich	4c#	-zern-	dich	4f#	-zern-	dich	4a	-zern-	dich
8F#	-den,	mein	8c#	-den,	mein	8f#	-den,	mein	8a	-den,	mein
=18	=18	=18	=18	=18	=18	=18	=18	=18	=18	=18	=18
4.F#	blit-	be-	4.cn	blit-	be-	4.a	blit-	be-	4.dd	blit-	be-
4F#	-zern-	-ben-	4c	-zern-	-ben-	4a	-zern-	-ben-	4dd	-zern-	-ben-
8F#	-den	-des	8c	-den	-des	8a	-den	-des	8dd	-den	-des
=19	=19	=19	=19	=19	=19	=19	=19	=19	=19	=19	=19
2.BB	Gau-	Seh-	(4B	Gau-	Seh-	(4f#	Gau-	Seh-	(2.dd#X	Gau-	Seh-
.	.	.	8cn	.	.	8a	.	.	.	.	.
.	.	.	4B	.	.	4g	.	.	.	.	.
.	.	.	8A	.	.	8f#	.	.	.	.	.
!!linebreak:original
=20	=20	=20	=20	=20	=20	=20	=20	=20	=20	=20	=20
4.E	-en,	-nen	4.B)	.	.	4.g)	.	.	4ff#	.	.
.	.	.	.	.	.	.	.	.	8ee)	.	.
4.G	wie	be-	4B	-en,	-nen	4e	-en,	-nen	4dd	-en,	-nen
.	.	.	8d	wie	be-	8e	wie	be-	8b	wie	be-
=21	=21	=21	=21	=21	=21	=21	=21	=21	=21	=21	=21
[4.A	se-	-tau-	[4.d	se-	-tau-	[4.f#	se-	-tau-	[4.a	se-	-tau-
8A]	.	.	8d]	.	.	8f#]	.	.	8a]	.	.
8A	-lig,	-en	8d	-lig,	-en	8f#	-lig,	-en	8dd	-lig,	-en
8A	den	mit	8d	den	mit	8f#	den	mit	8ee	den	mit
=22	=22	=22	=22	=22	=22	=22	=22	=22	=22	=22	=22
4.A#X	Mor-	se-	4.d	Mor-	se-	4.f#	Mor-	se-	[4.ff#	Mor-	se-
4B	.	.	4d	.	.	4f#	.	.	8ff#]	.	.
.	.	.	.	.	.	.	.	.	8dd	-gen	-li-
8B	-zu	-gen	8d	-zu	-gen	8f#	-zu	-gen	8b	zu	-gen
=23	=23	=23	=23	=23	=23	=23	=23	=23	=23	=23	=23
2.F#	schau-	Trä-	(4.d	schau-	Trä-	(4.f#	schau-	Trä-	(4.b	schau-	Trä-
.	.	.	4.A#X)	.	.	4.e)	.	.	4.cc#)	.	.
!!pagebreak:original
=24	=24	=24	=24	=24	=24	=24	=24	=24	=24	=24	=24
4.BB	-en,	-nen,	4.B	-en,	-nen,	4.d	-en,	-nen,	4.dd	-en,	-nen,
4r	.	.	4r	.	.	4r	.	.	4r	.	.
8A	wie	be-	8cn	wie	be-	8f#	wie	be-	8dd	wie	be-
=25	=25	=25	=25	=25	=25	=25	=25	=25	=25	=25	=25
[2.G	se-	-tau-	[2.B	se-	-tau-	[2.g	se-	-tau-	(4dd	se-	-tau-
.	.	.	.	.	.	.	.	.	8dd#X	.	.
.	.	.	.	.	.	.	.	.	4ee	.	.
.	.	.	.	.	.	.	.	.	8ff#	.	.
=26	=26	=26	=26	=26	=26	=26	=26	=26	=26	=26	=26
4.G]	.	.	4.B]	.	.	4.g]	.	.	4gg	.	.
.	.	.	.	.	.	.	.	.	8ee)	.	.
4G	-lig,	-en	4d	-lig,	-en	4e	-lig,	-en	4dd	-lig,	-en
8G	den	mit	8d	den	mit	8e	den	mit	8b	den	mit
=27	=27	=27	=27	=27	=27	=27	=27	=27	=27	=27	=27
[4.A	Mor-	se-	[4.d	Mor-	se-	[4.f#	Mor-	se-	[4.a	Mor-	se-
8A]	.	.	8d]	.	.	8f#]	.	.	8a]	.	.
8A	-gen	-li-	8d	-gen	-li-	8f#	-gen	-li-	8dd	-gen	-li-
8A	zu	-gen	8d	zu	-gen	8f#	zu	-gen	8ff#	zu	-gen
!!linebreak:original
=28	=28	=28	=28	=28	=28	=28	=28	=28	=28	=28	=28
2.AA	schau-	Trä-	4.B	schau-	Trä-	4.a	schau-	Trä-	([4.ff#	schau-	Trä-
.	.	.	4.c#	.	.	4.g	.	.	4ff#]	.	.
.	.	.	.	.	.	.	.	.	8ee)	.	.
=29	=29	=29	=29	=29	=29	=29	=29	=29	=29	=29	=29
4.D	-en,	-nen.	4d	-en,	-nen.	4f#	-en,	-nen.	4.dd	-en,	-nen.
.	.	.	8f#	wie	mit	8a	wie	mit	.	.	.
.	.	.	16qqg/	.	.	16qqb/	.	.	.	.	.
4r	.	.	8f#	se-	se-	8a	se-	se-	4.r	.	.
.	.	.	8e#X	-lig,	-li-	8g#X	-lig,	-li-	.	.	.
8d	wie	mit	8f#	wie	-gen	8a	wie	-gen	.	.	.
=30	=30	=30	=30	=30	=30	=30	=30	=30	=30	=30	=30
4.d	se-	se-	8g	se-	Trä-	8b	se-	Trä-	4.r	.	.
.	.	.	8f#	-lig,	-nen	8a	-lig,	-nen	.	.	.
.	.	.	8e#X	den	be-	8g#X	den	be-	.	.	.
4d	-lig,	-li-	8g	Mor-	-tau-	8b	Mor-	-tau-	4.r	.	.
.	.	.	8f#	-gen	-en,	8a	-gen	-en,	.	.	.
8d	den	-gen,	8e#	zu	mit	8g#	zu	mit	.	.	.
!!linebreak:original
=31	=31	=31	=31	=31	=31	=31	=31	=31	=31	=31	=31
2.D	Mor-	se-	4.e#X	schau-	Trä-	4.g#X	schau-	Trä-	4r	.	.
.	.	.	.	.	.	.	.	.	8dd	wie	mit
.	.	.	.	.	.	.	.	.	16qqee\	.	se-
.	.	.	4.f#	-en,	-nen	4.a	-en,	-nen	8dd	se-	.
.	.	.	.	.	.	.	.	.	8cc#	-lig,	-li-
.	.	.	.	.	.	.	.	.	8dd	wie	-gen
=32	=32	=32	=32	=32	=32	=32	=32	=32	=32	=32	=32
[4.D	-gen	-li-	2.e	zu	be-	2.g	zu	be-	8gg	se-	Trä-
.	.	.	.	.	.	.	.	.	8ff#	-lig,	-nen
.	.	.	.	.	.	.	.	.	8ee	den	be-
4D]	.	.	.	.	.	.	.	.	8ee	Mor-	-tau-
.	.	.	.	.	.	.	.	.	8dd	-gen	-en,
8D	zu	-gen	.	.	.	.	.	.	8cc#	zu	be-
=33	=33	=33	=33	=33	=33	=33	=33	=33	=33	=33	=33
2.D	schau-	Trä-	2.e	schau-	-tau-	2.g	schau-	-tau-	2.cc#	schau-	-tau-
=34	=34	=34	=34	=34	=34	=34	=34	=34	=34	=34	=34
4.D	-en.	-nen.	4.d	-en.	-en.	4.f#	-en.	-en.	4.dd	-en.	-en.
4.r	.	.	4.r	.	.	4.r	.	.	4.r	.	.
==	==	==	==	==	==	==	==	==	==	==	==
*-	*-	*-	*-	*-	*-	*-	*-	*-	*-	*-	*-
!!!system-decoration: [(s1,s2,s3,s4)]